assets/icons/gun.svg

<svg fill="none" height="40" viewBox="0 0 74 40" width="74" xmlns="http://www.w3.org/2000/svg"><g fill="#c0c0c0"><path d="m.393966 39.9062c-.053608-.0907 5.621614-19.6659 5.768004-19.9061.09691-.1577 7.56493-.1577 7.66183 0 .0402.065-.8062 3.134-1.8804 6.8216s-1.9268 6.7752-1.8928 6.8618c.0845.2217 2.5041.2227 2.6742 0 .1876-.2443 4.8247-16.3256 4.7423-16.4545-.0403-.066-2.2609-.1144-5.2124-.1144-2.8278 0-5.16902-.0454-5.20304-.1031-.03402-.0578 1.05566-3.8897 2.41751-8.52058l2.47423-8.4205701 9.1082-.0319586c5.0092-.0175257 9.1515.0103091 9.203.0628857.0516.052577-1.4309 5.329863-3.2989 11.727723-1.8681 6.3979-4.4443 15.2577-5.733 19.6824s-2.3948 8.1443-2.4557 8.269c-.103.2062-.6721.2196-9.21845.2196-5.00822 0-9.130873-.0423-9.161801-.0938zm18.996834-29.1143c.1412-.1824 1.2927-4.11747 1.2927-4.41953 0-.17319-.1886-.20618-1.3051-.20618-.8969 0-1.3402.04948-1.4247.1567-.1413.1866-1.2949 4.12371-1.2949 4.41751 0 .1752.1856.2062 1.3052.2062.8948 0 1.3402-.0495 1.4268-.1567zm8.0411 6.2258c-.0309-.0526 1.0588-3.8866 2.4217-8.52163l2.4742-8.4257201 3.7556-.0329896c2.0619-.0185566 3.8062.0164948 3.866.0762887.0598.059793-.532 2.316481-1.4 5.265951-.834 2.83503-1.5165 5.2505-1.5165 5.367 0 .1876.1588.2062 1.4144.1763l1.4145-.0351 1.5721-5.28862c.865-2.90823 1.6175-5.36079 1.6742-5.43914.1145-.1721639 7.4433-.2268027 7.5464-.056701.0309.051546-1.0588 3.886571-2.4227 8.520571l-2.4742 8.42569-9.1329.032c-5.0227.0175-9.1587-.0103-9.1897-.0629zm20.1216 0c-.031-.0516 1.0587-3.8866 2.4226-8.5206l2.4742-8.4257193 9.102-.0319585c5.0062-.0175257 9.1423.0103092 9.1917.0628858.0495.052577-1.0309 3.886572-2.3907 8.521602l-2.4804 8.42569-3.7556.033c-2.0619.0186-3.8062-.0165-3.866-.0763s.5392-2.3154 1.4062-5.2649c.834-2.83502 1.5165-5.25047 1.5165-5.36697 0-.18762-.1588-.20618-1.4144-.17628l-1.4145.03608-1.5721 5.28867c-.865 2.9082-1.6175 5.3607-1.6742 5.4391-.1155.1701-7.4474.2258-7.5484.0567zm22.7637-5.567c-.534-.4196-.535-.8887-.0051-2.83401.366-1.34638.5557-1.83092.8175-2.0969.1463-.14761.33-.25267.5315-.30393.2014-.05125.413-.04678.6121.01295.1991.05972.3782.17245.5181.32613.14.15367.2355.3425.2764.54629.1227.65567-.7804 3.81437-1.2165 4.26077-.1978.2046-.4655.3274-.7497.3438-.2841.0164-.5641-.0747-.7843-.2551z"/><path d="m30.3917 18.9382c-1.2041 0-1.9072.0928-2.6804.9072-1.135 1.1856-1.4 3.1444-.9742 4.5237.601 1.5712 2.3072 2.0949 3.0505 2.4351-1.8495-1.4938-1.1794-4.5144.7485-5.932h1.5731c3.5361 0 3.3134-.3288 3.3619 2.1237h.0165c.068-3.4628.0092-3.9783-3.0928-4.0474-.8093.0155-1.4608-.0082-2.0082-.0092zm6.1 6.9072c-.3557 2.2484-1.7289 2.5072-4.3804 2.5h-7.9742l-.7412 2.5h8.2092c2.9804-.0639 4.4453-2.5 4.8866-4.9979z"/></g></svg>

<svg width="74" height="40" viewBox="0 0 74 40" fill="none" xmlns="http://www.w3.org/2000/svg">
<path d="M0.393966 39.9062C0.340358 39.8155 6.01558 20.2403 6.16197 20.0001C6.25888 19.8424 13.7269 19.8424 13.8238 20.0001C13.864 20.0651 13.0176 23.1341 11.9434 26.8217C10.8692 30.5093 10.0166 33.5969 10.0506 33.6835C10.1351 33.9052 12.5547 33.9062 12.7248 33.6835C12.9124 33.4392 17.5495 17.3579 17.4671 17.229C17.4268 17.163 15.2062 17.1146 12.2547 17.1146C9.4269 17.1146 7.08568 17.0692 7.05166 17.0115C7.01764 16.9537 8.10732 13.1218 9.46917 8.49092L11.9434 0.0703499L21.0516 0.0383913C26.0608 0.0208656 30.2031 0.0487004 30.2546 0.101277C30.3062 0.153854 28.8237 5.43114 26.9557 11.829C25.0876 18.2269 22.5114 27.0867 21.2227 31.5114C19.934 35.9361 18.8279 39.6557 18.767 39.7804C18.664 39.9866 18.0949 40 9.54855 40C4.54033 40 0.417677 39.9577 0.386749 39.9062H0.393966ZM19.3908 10.7919C19.532 10.6095 20.6835 6.67443 20.6835 6.37237C20.6835 6.19918 20.4949 6.16619 19.3784 6.16619C18.4815 6.16619 18.0382 6.21567 17.9537 6.32289C17.8124 6.50949 16.6588 10.4466 16.6588 10.7404C16.6588 10.9156 16.8444 10.9466 17.964 10.9466C18.8588 10.9466 19.3042 10.8971 19.3908 10.7899V10.7919ZM27.4319 17.0177C27.401 16.9651 28.4907 13.1311 29.8536 8.49607L32.3278 0.0703499L36.0834 0.0373603C38.1453 0.0188037 39.8896 0.0538551 39.9494 0.113649C40.0092 0.173442 39.4174 2.43013 38.5494 5.3796C37.7154 8.21463 37.0329 10.6301 37.0329 10.7466C37.0329 10.9342 37.1917 10.9528 38.4473 10.9229L39.8618 10.8878L41.4339 5.59918C42.2989 2.69095 43.0514 0.23839 43.1081 0.16004C43.2226 -0.0121239 50.5514 -0.0667627 50.6545 0.103339C50.6854 0.154885 49.5957 3.98991 48.2318 8.62391L45.7576 17.0496L36.6247 17.0816C31.602 17.0991 27.466 17.0713 27.435 17.0187L27.4319 17.0177ZM47.5535 17.0177C47.5225 16.9661 48.6122 13.1311 49.9761 8.4971L52.4503 0.0713807L61.5523 0.0394222C66.5585 0.0218965 70.6946 0.0497314 70.744 0.102308C70.7935 0.154885 69.7131 3.98888 68.3533 8.62391L65.8729 17.0496L62.1173 17.0826C60.0554 17.1012 58.3111 17.0661 58.2513 17.0063C58.1915 16.9465 58.7905 14.6909 59.6575 11.7414C60.4915 8.90638 61.174 6.49093 61.174 6.37443C61.174 6.18681 61.0152 6.16825 59.7596 6.19815L58.3451 6.23423L56.773 11.5229C55.908 14.4311 55.1555 16.8836 55.0988 16.962C54.9833 17.1321 47.6514 17.1878 47.5504 17.0187L47.5535 17.0177ZM70.3172 11.4507C69.7832 11.0311 69.7822 10.562 70.3121 8.61669C70.6781 7.27031 70.8678 6.78577 71.1296 6.51979C71.2759 6.37218 71.4596 6.26712 71.6611 6.21586C71.8625 6.16461 72.0741 6.16908 72.2732 6.22881C72.4723 6.28853 72.6514 6.40126 72.7913 6.55494C72.9313 6.70861 73.0268 6.89744 73.0677 7.10123C73.1904 7.7569 72.2873 10.9156 71.8512 11.362C71.6534 11.5666 71.3857 11.6894 71.1015 11.7058C70.8174 11.7222 70.5374 11.6311 70.3172 11.4507Z" fill="#C0C0C0"/>
<path d="M30.3917 18.9382C29.1876 18.9382 28.4845 19.031 27.7113 19.8454C26.5763 21.031 26.3113 22.9898 26.7371 24.3691C27.3381 25.9403 29.0443 26.464 29.7876 26.8042C27.9381 25.3104 28.6082 22.2898 30.5361 20.8722H32.1092C35.6453 20.8722 35.4226 20.5434 35.4711 22.9959H35.4876C35.5556 19.5331 35.4968 19.0176 32.3948 18.9485C31.5855 18.964 30.934 18.9403 30.3866 18.9393L30.3917 18.9382ZM36.4917 25.8454C36.136 28.0938 34.7628 28.3526 32.1113 28.3454H24.1371L23.3959 30.8454H31.6051C34.5855 30.7815 36.0504 28.3454 36.4917 25.8475V25.8454Z" fill="#C0C0C0"/>
</svg>
